!!!COM:	Josquin des Pres?
**kern	**kern
*part2	*part1
*staff2	*staff1
*clefGv2	*clefGv2
*k[b-]	*k[b-]
*M2/1	*M2/1
=1-	=1-
1.d	0r
2c	.
=2	=2
2d	0r
2B-	.
2c	.
[2d	.
=3	=3
4d]	1.d
4c	.
4B-	.
4A	.
2G	.
2A	2c
=4	=4
1D	2d
.	2B-
1r	2c
.	[2d
=5	=5
1.d	4d]
.	4c
.	4B-
.	4A
.	2G
2c	2A
=6	=6
2d	1D
2B-	.
2c	1r
2d	.
=7	=7
2B-	1.d
2.f	.
4d	.
2e	2c
=8	=8
1f	2d
.	2B-
2r	2c
2F	2d
=9	=9
2G	2B-
2F	2.f
1G	.
.	4d
.	2e
=10	=10
1F	1f
1f	2r
.	2F
=11	=11
2e	2G
1d	2F
.	1G
4c	.
4B-	.
=12	=12
1A	1F
2r	1f
2D	.
=13	=13
2E	2e
2F	1d
1G	.
.	4c
.	4B-
=14	=14
2r	1A
2D	.
2E	2r
2F	2D
=15	=15
2G	2E
2A	2F
2B-	1G
2c	.
=16	=16
1d	2r
.	2D
2G	2E
[2d	2F
=17	=17
4d]	2G
4B-	.
2c	2A
2d	2B-
2e	2c
=18	=18
1f	1d
[1B-	2G
.	[2d
=19	=19
2B-]	4d]
.	4B-
2A	2c
1G	2d
.	2e
=20	=20
1F	1f
1G	[1B-
=21	=21
1D	2B-]
.	2A
[1d	1G
=22	=22
2d]	1F
2c	.
2B-	1G
4A	.
4G	.
=23	=23
2F	1D
2A	.
2G	[1d
[2B-	.
=24	=24
4B-]	2d]
4A	.
1A	2c
.	2B-
2G	4A
.	4G
=25	=25
2A	2F
2D	2A
1d	2G
.	[2B-
=26	=26
2c	4B-]
.	4A
2A	1A
1B-	.
.	2G
=27	=27
2A	2A
1f	2D
.	1d
4e	.
4d	.
=28	=28
2e	2c
1f	2A
.	1B-
4e	.
4d	.
=29	=29
2c	2A
2B-	1f
1d	.
.	4e
.	4d
=30	=30
2c	2e
2B-	1f
1f	.
.	4e
.	4d
=31	=31
2e	2c
1d	2B-
.	1d
4c	.
4B-	.
=32	=32
2A	2c
2.f	2B-
.	1f
4e	.
2d	.
=33	=33
2c	2e
1B-	1d
4A	4c
4G	4B-
=34	=34
0F	0A
==	==
*-	*-
